X:1
T:Rolling in the Dew
M:4/4
L:1/4
K:C
 G| A- G G G| A G E C| D2 C C| C2 C D| E D C D| E2 c B| A2 G2| G3 G|\
 A- G A B| c- d c A| G E c E| E- D C E| A3/2 G/2 G G| A- G E C| D2 C2|\
 C3||
